X:1
T:Cum tibi crux
T:Daniel Friderici
T:Source : Bicinia sacra---Rostock---J.Richelius---1642. Editor : André Vierendeels (07/07/17).
T:Notes : Original clefs : G2, G2 Editorial accidentals above the staff
T:b
T:-natural
T:Cum tibi crux
T:©
T:©
T:©
C:Daniel Friderici
Z:©
%%score [ 1 2 ]
L:1/8
Q:1/4=120
M:2/2
K:F
V:1 treble nm="Soprano 1" snm="S 1"
V:2 treble nm="Soprano 2" snm="S 2"
V:1
 d4 dcde | f2 ed e2 de | f2 de f3 e | d2 ^c=B c2 dc | B8 | A4 a4 | z4 g4 | z4 f4 | f6 e2 | e8 | %10
w: Cum ti- * * *|||||bi crux,|crux,|crux|o- ne-|ri,|
 z4 d4 | d6 d2 | d8 | e8 | z4 f4 | d4 d4 | g6 f2 | e2 d2 c2 d2 | e2 de f4- | f2 f2 e4 | %20
w: crux|o- ne-|ri|est,|tunc|cau- sae|Spi- *|||* ri- tus|
 d2 e2 f2 ed | e2 f2 e4 | d8 :: e4 e2 e2 | f4 e2 f2 | f2 d2 f4 | e4 A2 B2 | ^c2 d2 e2 ^f2 | %28
w: ad- * * * *||stat:|Pa- tro- nus|cau- sae, pa-|tro- nus cau-|sae Spi- *||
 g2 d2 e2 c2 | d2 e2 f2 g2 | a2 g2 f2 e2 | d2 e2 f2 e2 | d6 d2 | ^c4 z2 f2- | f2 f2 f4 | e4 d4 | %36
w: ||||* ri-|tus, Spi-|* ri- tus|il- le|
 ^c4 d4 | e8 | d8 :| %39
w: tu- *||ae.|
V:2
 z8 | z8 | d4 dcde | f2 ed e2 de | f2 de fefg | a4 A4 | A4 z4 | B4 z4 | B6 c2- | c2 c2 c4 | d8 | %11
w: ||Cum ti- * * *|||* bi|crux,|crux,|crux o-|* ne- ri,|est,|
 z4 B4 | B8 | A4 ^c4 | d6 e2 | f8 | e8 | g2 f2 e2 d2 | ^c4 d4 | d2 ^cd e2 de | f4 d2 ^c=B | %21
w: tunc|cau-|sae, tunc|cau- *||sae|Spi- * * *||ri- * * * * *|tus ad- * *|
 ^c2 d4 c2 | d8 :: ^c4 c2 c2 | d4 ^c2 d2 | d2 f2 d4 |"^-natural" ^c8 | A2 =B2 ^c2 d2 | %28
w: |stat:|Pa- tro- nus|cau- sae, pa-|tro- nus cau-|sae|Spi- * * *|
 e2 ^f2 g2 e2 | ^f2 g2 a2 g2 |"^-natural" f2 e2 d2 e2 | f2 c2 d2 A2 | B6 B2 | A4 a4- | a2 a2 a4 | %35
w: ||||* ri-|tus, Spi-|* ri- tus|
 g4 f4 | e2 d2 d4- | d2 ^c=B c4 | d8 :| %39
w: il- le|tu- * *||ae.|

